X:1
M:6/8
K:D
fdd cAA|BGG A2G|FAA def|gfg eaa|
fdd cAA|BGG A2G|FAA def|gfe d3::
FAA dAA|FAA BAA|FAA def|gfg eaa|
fdf fde|efg edB|cde ecG|ABG G2:|